assets/css/images/intro.svg

<svg height="500" preserveAspectRatio="none" width="1000" xmlns="http://www.w3.org/2000/svg" zoomAndPan="disable"><path d="m1100 500-2100-250"/><path d="m1100 500-2100-600"/><path d="m1100 500-2100-1000"/><path d="m1100 500-1350-1000"/><path d="m1100 500-800-1000"/><path d="m1100 500-350-1000"/><path d="m1750 0-1000 500"/><path d="m1500 0-1000 500"/><path d="m1150 0-1000 500"/><path d="m700 0-1000 500"/><path d="m150 0-1000 500"/></svg>

<svg height="500" preserveAspectRatio="none" width="1000" xmlns="http://www.w3.org/2000/svg" zoomAndPan="disable"><path d="M1100 500l-2100-250m2100 250l-2100-600m2100 600L-1000-500M1100 500L-250-500M1100 500L300-500m800 1000L750-500M1750 0L750 500M1500 0L500 500M1150 0L150 500M700 0L-300 500M150 0L-850 500"/></svg>
